svg/u1f350.svg

<svg viewBox="0 0 128 128" xmlns="http://www.w3.org/2000/svg">
  <path d="M64.52,22.23c-9.49-0.12-13.06,5.54-16.3,12.69c-2.48,5.47-4.33,13.61-9.49,20.63 s-17.84,16.09-16.3,34.86c1.55,18.77,14.33,32.4,42.19,32.9c28.47,0.52,41.62-18.87,41.26-38.37c-0.31-16.5-14.77-26.09-19.7-35.07 C78.65,36.15,81.54,22.44,64.52,22.23z" fill="#B7D118"/>
  <path d="M57.39,6.32c-0.21,0.79,1.29,7,2.03,9.94c0.98,3.9,2.14,8.86,2.93,11.26 c0.42,1.28,1.53,1.76,2.54,1.67c1.04-0.09,2.31-0.89,2.31-2.26c-0.01-2.55,0.07-10.04,0.12-13.02s0.39-8.99,0.35-9.86 c-0.02-0.42-2.49-0.86-5.4-0.43C59.34,4.05,57.51,5.88,57.39,6.32z" fill="#865C51"/>
  <path d="M55.29,37.87c-2.64-0.22-3.3,3.03-4.32,7.08c-1.03,4.05-3.24,9.13-5.73,12.97 c-4.22,6.52-8.54,9.94-11.18,16.37c-2.47,6-2.73,13.85,2.92,14.69c6.54,0.97,7.38-7.8,8.37-11.45c1.03-3.78,2.59-7.35,5.24-11.78 c1.94-3.25,6.28-12.13,7.02-18.53C58.37,40.73,58.47,38.14,55.29,37.87z" fill="#E4F57D"/>
  <path d="M79.31,71.94c-1.31-1.26-3.18-0.7-3.96,0.13c-0.74,0.78-1.34,2.61-0.08,3.91 c1.26,1.31,3.13,0.7,4.04-0.17C80.31,74.85,80.44,73.03,79.31,71.94z" fill="#E4DC9F"/>
  <path d="M84.09,74.9c-1.15,1.29-0.83,3.05,0.09,3.83c0.91,0.78,2.68,0.64,3.61-0.48 c1.13-1.35,0.44-3.05-0.22-3.61C86.92,74.07,85.18,73.68,84.09,74.9z" fill="#E4DC9F"/>
  <path d="M91.62,78.56c-1.47,1.27-0.79,3.1-0.16,3.77c0.87,0.91,2.68,0.85,3.59-0.11 c0.91-0.96,1.17-2.83,0.03-3.7C93.96,77.64,92.57,77.73,91.62,78.56z" fill="#E4DC9F"/>
  <path d="M78.57,62.46c-1.04,1.14-0.78,2.87,0.04,3.61s2.82,1.3,3.92-0.35c0.87-1.31,0.17-2.78-0.61-3.44 C81.09,61.59,79.44,61.5,78.57,62.46z" fill="#E4DC9F"/>
  <path d="M69.95,62.63c-1.23,1.39-0.42,2.97,0.35,3.74c0.87,0.87,2.65,1.09,3.61,0.04 c0.96-1.04,0.87-2.61,0-3.74C73.04,61.54,70.91,61.54,69.95,62.63z" fill="#E4DC9F"/>
  <path d="M75.65,49.1c-1.13-0.61-2.13,0.09-2.65,0.78c-0.52,0.7-0.48,2.18,0.35,2.74 c0.83,0.57,2.39,0.64,3.05-0.48C77,51.1,76.8,49.72,75.65,49.1z" fill="#E4DC9F"/>
</svg>

<svg viewBox="0 0 128 128" xmlns="http://www.w3.org/2000/svg">
  <defs/>
  <path d="M64.52,22.23 C55.03,22.11 51.46,27.77 48.22,34.92 C45.74,40.39 43.89,48.53 38.73,55.55 C33.57,62.57 20.89,71.64 22.43,90.41 C23.98,109.18 36.76,122.81 64.62,123.31 C93.09,123.83 106.24,104.44 105.88,84.94 C105.57,68.44 91.11,58.85 86.18,49.87 C78.65,36.15 81.54,22.44 64.52,22.23 Z" fill="#B7D118"/>
  <path d="M57.39,6.32 C57.18,7.11 58.68,13.32 59.42,16.26 C60.4,20.16 61.56,25.12 62.35,27.52 C62.77,28.8 63.88,29.28 64.89,29.19 C65.93,29.1 67.2,28.3 67.2,26.93 C67.19,24.38 67.27,16.89 67.32,13.91 C67.37,10.93 67.71,4.92 67.67,4.05 C67.65,3.63 65.18,3.19 62.27,3.62 C59.34,4.05 57.51,5.88 57.39,6.32 Z" fill="#865C51"/>
  <path d="M55.29,37.87 C52.65,37.65 51.99,40.9 50.97,44.95 C49.94,49 47.73,54.08 45.24,57.92 C41.02,64.44 36.7,67.86 34.06,74.29 C31.59,80.29 31.33,88.14 36.98,88.98 C43.52,89.95 44.36,81.18 45.35,77.53 C46.38,73.75 47.94,70.18 50.59,65.75 C52.53,62.5 56.87,53.62 57.61,47.22 C58.37,40.73 58.47,38.14 55.29,37.87 Z" fill="#E4F57D"/>
  <path d="M79.31,71.94 C78,70.68 76.13,71.24 75.35,72.07 C74.61,72.85 74.01,74.68 75.27,75.98 C76.53,77.29 78.4,76.68 79.31,75.81 C80.31,74.85 80.44,73.03 79.31,71.94 Z" fill="#E4DC9F"/>
  <path d="M84.09,74.9 C82.94,76.19 83.26,77.95 84.18,78.73 C85.09,79.51 86.86,79.37 87.79,78.25 C88.92,76.9 88.23,75.2 87.57,74.64 C86.92,74.07 85.18,73.68 84.09,74.9 Z" fill="#E4DC9F"/>
  <path d="M91.62,78.56 C90.15,79.83 90.83,81.66 91.46,82.33 C92.33,83.24 94.14,83.18 95.05,82.22 C95.96,81.26 96.22,79.39 95.08,78.52 C93.96,77.64 92.57,77.73 91.62,78.56 Z" fill="#E4DC9F"/>
  <path d="M78.57,62.46 C77.53,63.6 77.79,65.33 78.61,66.07 C79.43,66.81 81.43,67.37 82.53,65.72 C83.4,64.41 82.7,62.94 81.92,62.28 C81.09,61.59 79.44,61.5 78.57,62.46 Z" fill="#E4DC9F"/>
  <path d="M69.95,62.63 C68.72,64.02 69.53,65.6 70.3,66.37 C71.17,67.24 72.95,67.46 73.91,66.41 C74.87,65.37 74.78,63.8 73.91,62.67 C73.04,61.54 70.91,61.54 69.95,62.63 Z" fill="#E4DC9F"/>
  <path d="M75.65,49.1 C74.52,48.49 73.52,49.19 73,49.88 C72.48,50.58 72.52,52.06 73.35,52.62 C74.18,53.19 75.74,53.26 76.4,52.14 C77,51.1 76.8,49.72 75.65,49.1 Z" fill="#E4DC9F"/>
</svg>
